X:429
T:Nu lider dagen
C:anon.
O:Denmark
Z:Transcribed by Frank Nordberg - http://www.musicaviva.com
F:http://abc.musicaviva.com/tunes/denmark/nu-lider-dagen/nu-lider-dagen-1.abc
M:2/4
L:1/8
Q:1/4=88
K:F
"(Slow)"A|"A7"AG FE|"Dm"F2D E|"Dm"F2 "C"G2|"F"A3A|
w:Nu li-_ der_ da-gen s\aa j\aevnt og trindt, alt
"A7"AG FE|"Bb"D^C D E|"Dm"F>G "A7"E>F|"Dm"D2z2||
w:m\aa-_nen_ st\aar_ o-ver St\ae-_vens_ Klint
"C  (Fast)"C2C "C7"C|"F"F2F2|"C7"GA B G|"F"c2A F|
w:B\ae-ge-ret blin-ker, gl\ae-_den os vin-ker, mens
"C"C2D "C7"E|"F"F2"C"G "F"A|"C7"cB G A|"F"F2z2|
w:k\o- ig-hed vif-ter fra tr\ae-_er-nes krans;
"Bb"f2e d|"F"c2B A|"C"G2"D7"A2|"Gm"B3 z|
